X: 34
M: 2/4
L: 1/16
K: G
V: 1
|:\
[B4D4G,4] dBcA | GABc d2d2 | dfga gdcB | AGFE D4 |\
[B4D4G,4] dBcA | GABc d2d2 | dfga gBcA | G2G,2 G,4 :|
|:\
a4 {g}f2ed | g4 {e}d2cB | cfac BdgB | AGFE D4 |\
a4 {g}f2ed | g4 dcBA | BdBG AcAF | G4 G,4 :|[K:Gm]
[| "Mineur"\
bagf =ed^c=B | A^c=ec Aceg | {g}f2=ed {f}e2d^c | "_Da Capo"d2D2 D4 |]
V: 2 clef=bass middle=d
|:\
g2G2B2G2 | d2c2B2d2 | G8 :||: d4 d'2c'2 | b2d'2b2g2 |
a2f2g2G2 | d4 f2a2 | d4 d'2c'2 | b2g2f2d2 | g2B2c2d2 | G8 :|[K:Gm]
[| "Mineur"\
g2d2 G2c2 | B2e2c2d2 | HG8 |] b4 B4 | b4 B4 | g4 G4 |
g4 G4 | g4 G4 | A4 ^c4 | d4 A4 | "_Da Capo"d8 |]


